Newaita/actions/32/format-text-direction-vertical.svg

<svg height="32" viewBox="0 0 32 32" width="32" xmlns="http://www.w3.org/2000/svg"><g fill="#424242"><path d="m5.292969 28.695312v-13.230468c0-.363282.296875-.660156.660156-.660156h1.324219c.363281 0 .660156.296874.660156.660156v13.230468c0 .367188-.296875.660157-.660156.660157h-1.324219c-.363281 0-.660156-.292969-.660156-.660157zm0 0"/><path d="m23.816406 28.695312v-25.136718c0-.367188.292969-.664063.660156-.664063h1.324219c.363281 0 .660157.296875.660157.664063v25.136718c0 .367188-.296876.660157-.660157.660157h-1.324219c-.367187 0-.660156-.292969-.660156-.660157zm0 0"/><path d="m6.613281 2.894531c-1.832031 0-3.304687 1.476563-3.304687 3.308594v5.953125-.328125c0-.183594.148437.328125.328125.328125h.664062c.183594 0 .328125-.144531.328125-.328125v-2.316406h3.972656v2.316406c0 .183594.144532.328125.328126.328125h.664062c.179688 0 .328125-.144531.328125-.328125v-5.625c0-1.832031-1.472656-3.308594-3.308594-3.308594zm0 1.324219c1.101563 0 1.988281.886719 1.988281 1.984375v1.984375h-3.972656v-1.984375c0-1.097656.886719-1.984375 1.984375-1.984375zm0 0"/><path d="m14.554688 28.695312v-25.136718c0-.367188.296874-.664063.660156-.664063h1.324218c.363282 0 .660157.296875.660157.664063v25.136718c0 .367188-.296875.660157-.660157.660157h-1.324218c-.363282 0-.660156-.292969-.660156-.660157zm0 0"/></g></svg>

<svg xmlns="http://www.w3.org/2000/svg" xmlns:xlink="http://www.w3.org/1999/xlink" width="32px" height="32px" viewBox="0 0 32 32" version="1.1">
<g id="surface1">
     <defs>
  <style id="current-color-scheme" type="text/css">
   .ColorScheme-Text { color:#424242; } .ColorScheme-Highlight { color:#eeeeee; }
  </style>
 </defs>
<path style="fill:currentColor" class="ColorScheme-Text" d="M 5.292969 28.695312 L 5.292969 15.464844 C 5.292969 15.101562 5.589844 14.804688 5.953125 14.804688 L 7.277344 14.804688 C 7.640625 14.804688 7.9375 15.101562 7.9375 15.464844 L 7.9375 28.695312 C 7.9375 29.0625 7.640625 29.355469 7.277344 29.355469 L 5.953125 29.355469 C 5.589844 29.355469 5.292969 29.0625 5.292969 28.695312 Z M 5.292969 28.695312 "/>
     <defs>
  <style id="current-color-scheme" type="text/css">
   .ColorScheme-Text { color:#424242; } .ColorScheme-Highlight { color:#eeeeee; }
  </style>
 </defs>
<path style="fill:currentColor" class="ColorScheme-Text" d="M 23.816406 28.695312 L 23.816406 3.558594 C 23.816406 3.191406 24.109375 2.894531 24.476562 2.894531 L 25.800781 2.894531 C 26.164062 2.894531 26.460938 3.191406 26.460938 3.558594 L 26.460938 28.695312 C 26.460938 29.0625 26.164062 29.355469 25.800781 29.355469 L 24.476562 29.355469 C 24.109375 29.355469 23.816406 29.0625 23.816406 28.695312 Z M 23.816406 28.695312 "/>
     <defs>
  <style id="current-color-scheme" type="text/css">
   .ColorScheme-Text { color:#424242; } .ColorScheme-Highlight { color:#eeeeee; }
  </style>
 </defs>
<path style="fill:currentColor" class="ColorScheme-Text" d="M 6.613281 2.894531 C 4.78125 2.894531 3.308594 4.371094 3.308594 6.203125 L 3.308594 12.15625 L 3.308594 11.828125 C 3.308594 11.644531 3.457031 12.15625 3.636719 12.15625 L 4.300781 12.15625 C 4.484375 12.15625 4.628906 12.011719 4.628906 11.828125 L 4.628906 9.511719 L 8.601562 9.511719 L 8.601562 11.828125 C 8.601562 12.011719 8.746094 12.15625 8.929688 12.15625 L 9.59375 12.15625 C 9.773438 12.15625 9.921875 12.011719 9.921875 11.828125 L 9.921875 6.203125 C 9.921875 4.371094 8.449219 2.894531 6.613281 2.894531 Z M 6.613281 4.21875 C 7.714844 4.21875 8.601562 5.105469 8.601562 6.203125 L 8.601562 8.1875 L 4.628906 8.1875 L 4.628906 6.203125 C 4.628906 5.105469 5.515625 4.21875 6.613281 4.21875 Z M 6.613281 4.21875 "/>
     <defs>
  <style id="current-color-scheme" type="text/css">
   .ColorScheme-Text { color:#424242; } .ColorScheme-Highlight { color:#eeeeee; }
  </style>
 </defs>
<path style="fill:currentColor" class="ColorScheme-Text" d="M 14.554688 28.695312 L 14.554688 3.558594 C 14.554688 3.191406 14.851562 2.894531 15.214844 2.894531 L 16.539062 2.894531 C 16.902344 2.894531 17.199219 3.191406 17.199219 3.558594 L 17.199219 28.695312 C 17.199219 29.0625 16.902344 29.355469 16.539062 29.355469 L 15.214844 29.355469 C 14.851562 29.355469 14.554688 29.0625 14.554688 28.695312 Z M 14.554688 28.695312 "/>
</g>
</svg>
